!!!COM: Vivaldi, Antonio Lucio
!!!CDT: 1678/03/04-1741/08/28
!!!OPR: 12 sonatas for two violins and basso continuo
!!!OTL: Sonata in B minor, op. @{OPS}, no. @{ONM} (@{SCT})
!!!OPS: 1
!!!ONM: 11
!!!OMV: 1. Preludio
!!!SCT: RV 79
!!!SCA: Antonio Vivaldi: Thematisch-systematisches Verzeichnis seiner Werke (Ryom-Verzeichnis)
!!!OMD: Andante
!!!key: b
**kern	**dynam	**fb	**kern	**dynam	**kern	**dynam
*part3	*	*	*part2	*	*part1	*
*staff3	*	*	*staff2	*	*staff1	*
*ICstr&ICklav	*	*	*ICstr	*	*ICstr	*
*Icello&Icemba	*	*	*Ivioln	*	*Ivioln	*
*	*	*	*I#2	*	*I#1	*
*I"Violoncello\nContinuo	*	*	*I"Violin 2	*	*I"Violin 1	*
*I'bc	*	*	*I'v2	*	*I'v1	*
*>[A,A,B,B]	*>[A,A,B,B]	*>[A,A,B,B]	*>[A,A,B,B]	*>[A,A,B,B]	*>[A,A,B,B]	*>[A,A,B,B]
*>norep[A,B]	*>norep[A,B]	*>norep[A,B]	*>norep[A,B]	*>norep[A,B]	*>norep[A,B]	*>norep[A,B]
*>A	*>A	*>A	*>A	*>A	*>A	*>A
*clefF4	*	*	*clefG2	*	*clefG2	*
*k[f#c#]	*	*	*k[f#c#]	*	*k[f#c#]	*
*b:	*	*	*b:	*	*b:	*
*M4/4	*	*	*M4/4	*	*M4/4	*
*met(c)	*	*	*met(c)	*	*met(c)	*
*MM50	*	*	*MM50	*	*MM50	*
=1	=1	=1	=1	=1	=1	=1
4r	.	.	1r	.	(16b\LL	.
.	.	.	.	.	16cc#y\)	.
.	.	.	.	.	(16dd\	.
.	.	.	.	.	16ee\JJ)	.
16BB/LL	.	.	.	.	8ff#y\L	.
16C#y/	.	.	.	.	.	.
16D/	.	6	.	.	8bb\J	.
16E/JJ	.	.	.	.	.	.
4F#y\	.	#	.	.	(16aa#X\LL	.
.	.	.	.	.	16gg#X\)	.
.	.	.	.	.	(16ff#y\	.
.	.	.	.	.	16ee\JJ)	.
8BB/L	.	.	.	.	8dd\L	.
8AA#X/J	.	6	.	.	8cc#y\J	.
=2	=2	=2	=2	=2	=2	=2
16BB/LL	.	.	2r	.	8b\L	.
16C#y/	.	.	.	.	.	.
16D/	.	6	.	.	8bb\	.
16E/JJ	.	.	.	.	.	.
8F#y/L	.	#	.	.	8f#y\	.
8FF#y/J	.	.	.	.	8aa#X\J	.
4BB/	.	.	(16b\LL	.	4B/	.
.	.	.	16cc#y\)	.	.	.
.	.	.	(16dd\	.	.	.
.	.	.	16ee\JJ)	.	.	.
16BB/LL	.	.	8ff#y\L	.	4r	.
16C#y/	.	.	.	.	.	.
16D/	.	6	8bb\J	.	.	.
16E/JJ	.	.	.	.	.	.
=3	=3	=3	=3	=3	=3	=3
4F#y\	.	#	(16aa#X\LL	.	1r	.
.	.	.	16gg#X\)	.	.	.
.	.	.	(16ff#y\	.	.	.
.	.	.	16ee\JJ)	.	.	.
8BB/L	.	.	8dd\L	.	.	.
8AA#X/J	.	6	8cc#y\J	.	.	.
16BB/LL	.	.	8b\L	.	.	.
16C#y/	.	.	.	.	.	.
16D/	.	6	8bb\	.	.	.
16E/JJ	.	.	.	.	.	.
8F#y/L	.	#	8f#y\	.	.	.
8FF#y/J	.	.	8aa#X\J	.	.	.
!!LO:LB:g=original
=4	=4	=4	=4	=4	=4	=4
4BB/	.	.	4B/	.	(16B/LL	.
.	.	.	.	.	16c#y/)	.
.	.	.	.	.	(16d/	.
.	.	.	.	.	16e/JJ)	.
4r	.	.	(16B/LL	.	8f#y/L	.
.	.	.	16c#y/)	.	.	.
.	.	.	(16d/	.	8B/J	.
.	.	.	16e/JJ)	.	.	.
4BB/	.	.	8f#y/L	.	8b/L	.
.	.	.	8B/	.	8f#y/J	.
4r	.	.	8b/	.	8dd\L	.
.	.	.	8f#y/J	.	16cc#y\L	.
.	.	.	.	.	16b\JJ	.
=5	=5	=5	=5	=5	=5	=5
4BB/	.	.	8dd\L	.	8ff#y\L	.
.	.	.	16cc#y\L	.	16ee\L	.
.	.	.	16b\JJ	.	16dd\JJ	.
4r	.	.	8dd\L	.	8ff#y\L	.
.	.	.	16cc#y\L	.	16ee\L	.
.	.	.	16b\JJ	.	16dd\JJ	.
8.F#y\L	.	#	8a#y\L	.	8cc#y/L	.
.	.	.	8aa#y\J	.	8f#y/J	.
16E\Jk	.	.	.	.	.	.
4D\	.	6	[4bb\	.	8r	.
.	.	.	.	.	8ff#y\	.
=6	=6	=6	=6	=6	=6	=6
8E\L	.	7	(16bb\LL]	.	(16gg\LL	.
.	.	.	16aan\)	.	16ff#y\)	.
8E\	.	.	(16gg\	.	(16ee\	.
.	.	.	16ff#y\JJ)	.	16dd\JJ)	.
8A\	.	7	8ee\L	.	8cc#y\L	.
8C#y\J	.	6 5	[8aa\J	.	8ee\J	.
8r	.	.	(16aa\LL]	.	(16ff#y\LL	.
.	.	.	16gg\)	.	16ee\)	.
8D\	.	.	(16ff#y\	.	(16dd\	.
.	.	.	16ee\JJ)	.	16cc#y\JJ)	.
8G\L	.	7	8dd\L	.	8b\L	.
8BB\J	.	6 5	[8gg\J	.	8dd\J	.
=7	=7	=7	=7	=7	=7	=7
8r	.	.	(16gg\LL]	.	(16ee\LL	.
.	.	.	16ff#y\)	.	16dd\)	.
8C#y/	.	.	(16ee\	.	(16cc#y\	.
.	.	.	16dd\JJ)	.	16b\JJ)	.
8F#y/L	.	7	8cc#y\L	.	8a\L	.
8AA/J	.	6 5	[8ff#y\J	.	8cc#y\J	.
8r	.	.	(16ff#y\LL]	.	(16dd\LL	.
.	.	.	16ee\)	.	16cc#y\)	.
8BB/	.	.	(16dd\	.	(16b\	.
.	.	.	16cc#y\JJ)	.	16a\JJ)	.
8E/L	.	7	4b\	.	8g\L	.
8GG/J	.	6	.	.	8ee\J	.
!!LO:LB:g=original
=8	=8	=8	=8	=8	=8	=8
8AA/L	.	.	8r	.	8a/L	.
8GG/J	.	7 5	8f#y/	.	8dd/	.
4AA/	.	.	8e/L	.	8A/	.
.	.	.	8a/J	.	8cc#y/J	.
2D\	.	.	2f#y/	.	2d/	.
=9:|!|:	=9:|!|:	=9:|!|:	=9:|!|:	=9:|!|:	=9:|!|:	=9:|!|:
*>B	*>B	*>B	*>B	*>B	*>B	*>B
4r	.	.	1r	.	(16dd\LL	.
.	.	.	.	.	16ee\)	.
.	.	.	.	.	(16ff#y\	.
.	.	.	.	.	16gg\JJ)	.
16D\LL	.	.	.	.	8aa\L	.
16E\	.	.	.	.	.	.
16F#y\	.	6	.	.	8ddd\J	.
16G\JJ	.	.	.	.	.	.
4A\	.	.	.	.	(16ccc#y\LL	.
.	.	.	.	.	16bb\)	.
.	.	.	.	.	(16aa\	.
.	.	.	.	.	16gg\JJ)	.
8D/L	.	.	.	.	8ff#y\L	.
8C#y/J	.	6	.	.	8ee\J	.
=10	=10	=10	=10	=10	=10	=10
16D\LL	.	.	2r	.	8dd\L	.
16E\	.	.	.	.	.	.
16F#y\	.	6	.	.	8ddd\	.
16G\JJ	.	.	.	.	.	.
8A\L	.	.	.	.	8a\	.
8AA\J	.	.	.	.	8ccc#y\J	.
4D\	.	.	(16dd\LL	.	4d/	.
.	.	.	16ee\)	.	.	.
.	.	.	(16ff#y\	.	.	.
.	.	.	16gg\JJ)	.	.	.
16D\LL	.	.	8aa\L	.	4r	.
16E\	.	.	.	.	.	.
16F#y\	.	6	8ddd\J	.	.	.
16G\JJ	.	.	.	.	.	.
=11	=11	=11	=11	=11	=11	=11
4A\	.	.	(16ccc#y\LL	.	1r	.
.	.	.	16bb\)	.	.	.
.	.	.	(16aa\	.	.	.
.	.	.	16gg\JJ)	.	.	.
8D/L	.	.	8ff#y\L	.	.	.
8C#y/J	.	6	8ee\J	.	.	.
16D\LL	.	.	8dd\L	.	.	.
16E\	.	.	.	.	.	.
16F#y\	.	6	8ddd\	.	.	.
16G\JJ	.	.	.	.	.	.
8A\L	.	.	8a\	.	.	.
8AA\J	.	.	8ccc#y\J	.	.	.
!!LO:LB:g=original
=12	=12	=12	=12	=12	=12	=12
4D\	.	.	4d/	.	(16d/LL	.
.	.	.	.	.	16e/)	.
.	.	.	.	.	(16f#y/	.
.	.	.	.	.	16g/JJ)	.
16d\LL	.	.	8r	.	8a\L	.
16e\	.	.	.	.	.	.
16f#y\	.	6	8a/	.	8dd\J	.
16d\JJ	.	.	.	.	.	.
4.G#X\	.	6 5	(16b/LL	.	(16dd\LL	.
.	.	.	16a/)	.	16cc#y\)	.
.	.	.	(16g#X/	.	(16b\	.
.	.	.	16f#y/JJ)	.	16a\JJ)	.
.	.	.	8e/L	.	8g#X\L	.
8G#y\	.	.	8b/J	.	8ee\J	.
=13	=13	=13	=13	=13	=13	=13
8A\L	.	.	4cc#y\	.	(16ee\LL	.
.	.	.	.	.	16dd\)	.
16A\L	.	.	.	.	(16cc#y\	.
16B\JJ	.	.	.	.	16b\JJ)	.
8c#y\L	.	6	(16ee\LL	.	4a/	.
.	.	.	16dd\)	.	.	.
8A\J	.	.	(16cc#y\	.	.	.
.	.	.	16b\JJ)	.	.	.
4.d\	.	5	4a/	.	(16ff#y\LL	.
.	.	.	.	.	16ee\)	.
.	.	.	.	.	(16dd\	.
.	.	.	.	.	16cc#y\JJ)	.
.	.	6	[4b\	.	(16dd\LL	.
.	.	.	.	.	16cc#y\)	.
8d\	.	.	.	.	(16b\	.
.	.	.	.	.	16a\JJ)	.
=14	=14	=14	=14	=14	=14	=14
8E#X\L	.	5	8b/L]	.	8g#X/L	.
8F#y\	.	.	8a/J	.	16f#y/L	.
.	.	.	.	.	16g#X/JJ	.
8c#y\	.	#	8g#X/L	.	8.e#X/Lt	.
8C#y\J	.	.	16cc#y/L	.	.	.
.	.	.	16b/JJ	.	16f#y/Jk	.
4F#y\	.	.	4a/	.	(16f#y/LL	.
.	.	.	.	.	16g#X/)	.
.	.	.	.	.	(16a/	.
.	.	.	.	.	16b/JJ)	.
4r	.	.	(16f#y/LL	.	8cc#y/L	.
.	.	.	16g#X/)	.	.	.
.	.	.	(16a/	.	8f#y/J	.
.	.	.	16b/JJ)	.	.	.
!!LO:PB:g=original
=15	=15	=15	=15	=15	=15	=15
4F#y\	.	.	8cc#y/L	.	8ff#y\L	.
.	.	.	8f#y/J	.	8cc#y\J	.
4r	.	.	8ff#y\L	.	8aa\L	.
.	.	.	8cc#y\J	.	16gg#X\L	.
.	.	.	.	.	16ff#y\JJ	.
4F#y\	.	.	8aa\L	.	8ccc#y\L	.
.	.	.	16gg#X\L	.	16bb\L	.
.	.	.	16ff#y\JJ	.	16aa\JJ	.
4r	.	.	8aa\L	.	8ccc#y\L	.
.	.	.	16gg#X\L	.	16bb\L	.
.	.	.	16ff#y\JJ	.	16aa\JJ	.
=16	=16	=16	=16	=16	=16	=16
4c#y\	.	#	8ee#y\L	.	8gg#X\L	.
.	.	.	8cc#y\J	.	8ee#X\	.
4r	.	.	4r	.	8cc#y\	.
.	.	.	.	.	8ee#X\J	.
4A#X\	.	6	4.cc#y\	.	(16ff#y\LL	.
.	.	.	.	.	16cc#y\)	.
.	.	.	.	.	(16a#X\	.
.	.	.	.	.	16f#y\JJ)	.
4F#y\	.	7 #	.	.	8c#y/L	.
.	.	.	8cc#y\	.	8een/J	.
=17	=17	=17	=17	=17	=17	=17
4B\	.	.	(16b\LL	.	8dd/L	.
.	.	.	16cc#y\)	.	.	.
.	.	.	(16dd\	.	8f#y/	.
.	.	.	16ee\JJ)	.	.	.
4r	.	.	8ff#y\L	.	8B/	.
.	.	.	8b\J	.	8bb/J	.
4.B\	.	7 #	4.dd#X\	.	(16aan\LL	.
.	.	.	.	.	16gg\)	.
.	.	.	.	.	(16ff#y\	.
.	.	.	.	.	16ee\JJ)	.
.	.	.	.	.	8dd#X\L	.
8B\	.	.	8dd#y\	.	8aa\J	.
=18	=18	=18	=18	=18	=18	=18
4.E\	.	7nr	(16ee\LL	.	8gg\L	.
.	.	.	16ff#y\)	.	.	.
.	.	.	(16gg\	.	8ee\	.
.	.	.	16aa\JJ)	.	.	.
.	.	.	8bb\L	.	8e\	.
8E\	.	.	8ee\J	.	8gg\J	.
4.A\	.	7	4.cc#y\	.	(16gg\LL	.
.	.	.	.	.	16ff#y\)	.
.	.	.	.	.	(16ee\	.
.	.	.	.	.	16dd\JJ)	.
.	.	.	.	.	8cc#y\L	.
8A\	.	.	8cc#y\	.	8gg\J	.
!!LO:LB:g=original
=19	=19	=19	=19	=19	=19	=19
4.D\	.	7	(16dd\LL	.	8ff#y/L	.
.	.	.	16ee\)	.	.	.
.	.	.	(16ff#y\	.	8dd/	.
.	.	.	16gg\JJ)	.	.	.
.	.	.	8aa\L	.	8d/	.
8D\	.	.	8dd\J	.	8ff#y/J	.
4.G\	.	7	4.b\	.	(16ff#y\LL	.
.	.	.	.	.	16ee\)	.
.	.	.	.	.	(16dd\	.
.	.	.	.	.	16cc#y\JJ)	.
.	.	.	.	.	8b\L	.
8G\	.	.	8b\	.	8ff#y\J	.
=20	=20	=20	=20	=20	=20	=20
4.C#y/	.	7	(16cc#y\LL	.	8ee/L	.
.	.	.	16dd\)	.	.	.
.	.	.	(16ee\	.	8cc#y/	.
.	.	.	16ff#y\JJ)	.	.	.
.	.	.	8gg\L	.	8c#y/	.
8C#y/	.	.	8cc#y\J	.	8ee/J	.
4.F#y\	.	7 #	4.a#X/	.	(16ee\LL	.
.	.	.	.	.	16dd\)	.
.	.	.	.	.	(16cc#y\	.
.	.	.	.	.	16b\JJ)	.
.	.	.	.	.	8a#X\L	.
8AA#X/	.	5	8cc#y\	.	8ee\J	.
=21	=21	=21	=21	=21	=21	=21
4BB/	.	.	8f#y\L	.	8dd\L	.
.	.	.	8ff#y\J	.	(16cc#y\L	.
.	.	.	.	.	16b\JJ)	.
4E\	.	.	2ee\	.	8gg\L	.
.	.	.	.	.	(16ff#y\L	.
.	.	.	.	.	16ee\JJ)	.
4F#y\	.	7 #	.	.	8aa#X\L	.
.	.	.	.	.	(16gg#X\L	.
.	.	.	.	.	16ff#y\JJ)	.
8G\L	.	.	[4dd\	.	8bb\L	.
16F#y\L	.	.	.	.	(16aan\L	.
16E\JJ	.	.	.	.	16ggn\JJ)	.
=22	=22	=22	=22	=22	=22	=22
8D/L	.	6	8dd\L]	.	8ff#y\L	.
8E/	.	6 5	16cc#y\L	.	(16ee\L	.
.	.	.	16b\JJ	.	16dd\JJ)	.
8F#y/	.	#	8.a#X/L	.	8.cc#y\L	.
8FF#y/J	.	.	.	.	.	.
.	.	.	16b/Jk	.	16b\Jk	.
4BB/	.	.	(16b\LL	p	4b\	p
.	.	.	16cc#y\)	.	.	.
.	.	.	(16dd\	.	.	.
.	.	.	16ee\JJ)	.	.	.
4r	.	.	8ff#y\L	.	(16b\LL	.
.	.	.	.	.	16cc#y\)	.
.	.	.	8b\J	.	(16dd\	.
.	.	.	.	.	16ee\JJ)	.
!!LO:LB:g=original
=23	=23	=23	=23	=23	=23	=23
4BB/	p	.	(16b\LL	.	8ff#y\L	.
.	.	.	16cc#y\)	.	.	.
.	.	.	(16dd\	.	8b\J	.
.	.	.	16ee\JJ)	.	.	.
4r	.	.	8ff#y\L	.	(16b\LL	.
.	.	.	.	.	16cc#y\)	.
.	.	.	8b\J	.	(16dd\	.
.	.	.	.	.	16ee\JJ)	.
4BB/	.	.	(16b\LL	.	8ff#y\L	.
.	.	.	16cc#y\)	.	.	.
.	.	.	(16dd\	.	8b\	.
.	.	.	16ee\JJ)	.	.	.
4D\	f	6	8ff#y\L	.	8bb\	.
.	.	.	[8bb\J	f	8ff#y\J	f
=24	=24	=24	=24	=24	=24	=24
8E\L	.	7	(16bb\LL]	.	(16gg\LL	.
.	.	.	16aa\)	.	16ff#y\)	.
8E\	.	.	(16gg\	.	(16ee\	.
.	.	.	16ff#y\JJ)	.	16dd\JJ)	.
8A\	.	7	8ee\L	.	8cc#y\L	.
8C#y\J	.	6 5	[8aa\J	.	8ee\J	.
8r	.	.	(16aa\LL]	.	(16ff#y\LL	.
.	.	.	16gg\)	.	16ee\)	.
8D\	.	.	(16ff#y\	.	(16dd\	.
.	.	.	16ee\JJ)	.	16cc#y\JJ)	.
8G\L	.	7	8dd\L	.	8b\L	.
8BB\J	.	6 5	[8gg\J	.	8dd\J	.
=25	=25	=25	=25	=25	=25	=25
8r	.	.	(16gg\LL]	.	(16ee\LL	.
.	.	.	16ff#y\)	.	16dd\)	.
8E\	.	6 5	(16ee\	.	(16cc#y\	.
.	.	.	16dd\JJ)	.	16b\JJ)	.
8F#y/L	.	#	8.cc#y\L	.	8a#y\L	.
8FF#y/J	.	.	.	.	(16ff#y\L	.
.	.	.	16cc#y\Jk	.	16ee\JJ)	.
8r	.	.	8f#y/L	.	8dd\L	.
8BB/	.	.	8dd/	.	(16cc#y\L	.
.	.	.	.	.	16b\JJ)	.
4AA#X/	.	7 5	8e/	.	8.g/LT	.
.	.	.	8cc#y/J	.	.	.
.	.	.	.	.	16g/Jk	.
=26	=26	=26	=26	=26	=26	=26
16BB/LL	.	.	(16d/LL	.	8f#y/L	.
16C#y/	.	.	16e/)	.	.	.
16D/	.	6	(16f#y/	.	8b/	.
16E/JJ	.	.	16g/JJ)	.	.	.
8F#y/L	.	#	8A#y/L	.	8c#y/	.
8FF#y/J	.	.	8f#y/J	.	8a#X/J	.
2BB/;	.	.	2d/;	.	2B/;	.
=:|!	=:|!	=:|!	=:|!	=:|!	=:|!	=:|!
*-	*-	*-	*-	*-	*-	*-
!!!SMS: RV 79 / Estienne Roger (No. 363), Amsterdam [facs.]
!!!ENC: Fran Bennion   rev. 05/19/21 E Correia
!!!END: 2004/10/30
!!!ONB: Converted from MuseData with musedata2hum on Sat May 11 12:01:57 2024
!!!YEM: (C) 2004, 2019 Center for Computer Assisted Research in the Humanities
!!!system-decoration: [(s1,s2,s3)]
!!!URL-info: https://wiki.ccarh.org/wiki/MuseData:_Antonio_Vivaldi#Op._1:_Suonate_da_camera_a_tr.C3.A8.2C_due_violini_e_violone_o_cembalo Information about Vivaldi Op. 1 on the CCARH wiki
!!!URL-pdf: https://pdf.musedata.org/vivaldi-op01-no11.pdf#page=1 MuseData edition
!!!URL-pdf: https://s9.imslp.org/files/imglnks/usimg/1/18/IMSLP280399-PMLP10351-Vivaldi_Sonatas_Op_1_-_Violino_Primo.pdf#page=17 Violino primo part, Amsterdam: Estienne Roger, n.d.(ca.1723). Plate 363.
!!!URL-pdf: https://s9.imslp.org/files/imglnks/usimg/d/d5/IMSLP280400-PMLP10351-Vivaldi_Sonatas_Op_1_-_Violino_Secondo.pdf#page=14 Violino secondo part, Amsterdam: Estienne Roger, n.d.(ca.1723). Plate 363.
!!!URL-pdf: https://s9.imslp.org/files/imglnks/usimg/8/89/IMSLP280401-PMLP10351-Vivaldi_Sonatas_Op_1_-_Organo_e_Violoncello.pdf#page=15 Organo e Violoncello parts, Amsterdam: Estienne Roger, n.d.(ca.1723). Plate 363.
!!!URL-youtube: https://www.youtube.com/watch?v=P5HHPe_W6Uo&t=4212s L'Arte dell'Arco
!!!title: @{OTL}, mov. @{OMV}
!!!filter-vcross: vcross
!!!EEV: 2024/05/11
!!!source-file: https://bitbucket.org/musedata/vivaldi/src/master/roger/op1/no11/stage2/01/01
!!!source-file: https://bitbucket.org/musedata/vivaldi/src/master/roger/op1/no11/stage2/01/02
!!!source-file: https://bitbucket.org/musedata/vivaldi/src/master/roger/op1/no11/stage2/01/03
!!!source-file: https://bitbucket.org/musedata/vivaldi/src/master/roger/op1/no11/stage2/01/04
